libs/ui/packages/crypto-icons/src/svg/GLINT.svg

<svg width="24" height="24" viewBox="0 0 24 24" fill="none" xmlns="http://www.w3.org/2000/svg">
<path d="M12.1271 3.06738L12.273 4.00725C12.9008 8.05266 16.0748 11.2265 20.1201 11.8543L21.06 12.0002L20.1201 12.146C16.0748 12.7739 12.9008 15.9478 12.273 19.9932L12.1271 20.933L11.9813 19.9932C11.3534 15.9478 8.17954 12.7739 4.13418 12.146L3.19434 12.0002L4.13418 11.8543C8.17954 11.2265 11.3534 8.05266 11.9813 4.00725L12.1271 3.06738Z" fill="white"/>
</svg>

<svg xmlns="http://www.w3.org/2000/svg" width="24" height="24" viewBox="0 0 24 24" fill="none"><path fill="#fff" d="m12.127 3.067.146.94a9.4 9.4 0 0 0 7.847 7.847l.94.146-.94.146a9.4 9.4 0 0 0-7.847 7.847l-.146.94-.146-.94a9.4 9.4 0 0 0-7.847-7.847L3.194 12l.94-.146a9.4 9.4 0 0 0 7.847-7.847z"/></svg>
